findly-builder/apps/searchassist/src/assets/images/icons/Urlicon.svg

<svg width="15" height="13" viewBox="0 0 15 13" fill="none" xmlns="http://www.w3.org/2000/svg">
<path d="M5.25256 1.48178C4.11176 1.99628 3.17706 2.88971 2.60693 4H1.50195C2.48297 1.65399 4.80096 0 7.49994 0C10.199 0 12.517 1.65399 13.499 4H12.3929C11.8229 2.88974 10.8882 1.99631 9.74744 1.48181C10.1808 2.14886 10.5229 3.01001 10.739 4H9.70099C9.24841 2.16479 8.34583 1.00226 7.5025 1H7.49994C6.65601 1 5.75201 2.16299 5.29901 4H4.26099C4.47705 3.00998 4.81921 2.14886 5.25256 1.48178Z" fill="#202124"/>
<path d="M9.74219 11.5219C10.5197 11.1732 11.202 10.6491 11.739 10H12.968C11.8126 11.8 9.79718 12.9987 7.50372 13H7.49994C5.20496 13 3.18896 11.801 2.03198 10H3.26093C3.79785 10.6491 4.48035 11.1733 5.25787 11.5219C4.97699 11.0901 4.73425 10.5768 4.539 10H5.61597C6.10901 11.242 6.82196 12 7.49994 12C8.17798 12 8.89099 11.242 9.38397 10H10.461C10.2657 10.5768 10.0231 11.09 9.74219 11.5219Z" fill="#202124"/>
<path d="M4.99994 5L4.02094 9H3.078L2.5 6.44812L1.922 9H0.979004L0 5H1L1.47418 7.40384L2 5H3L3.52582 7.40369L3.99994 5H4.99994Z" fill="#202124"/>
<path d="M10 5L9.021 9H8.078L7.5 6.44812L6.922 9H5.979L4.99994 5H6L6.47418 7.40384L7 5H8L8.52582 7.40384L9 5H10Z" fill="#202124"/>
<path d="M10 5L10.979 9H11.922L12.5 6.44812L13.078 9H14.021L15 5H14L13.5258 7.40384L13 5H12L11.4742 7.40384L11 5H10Z" fill="#202124"/>
</svg>

<svg width="15" height="13" fill="none" xmlns="http://www.w3.org/2000/svg"><path d="M5.253 1.482A5.545 5.545 0 0 0 2.607 4H1.502A6.508 6.508 0 0 1 7.5 0a6.51 6.51 0 0 1 5.999 4h-1.106a5.544 5.544 0 0 0-2.646-2.518c.434.667.776 1.528.992 2.518H9.701c-.453-1.835-1.355-2.998-2.199-3H7.5c-.844 0-1.748 1.163-2.201 3H4.261c.216-.99.558-1.851.992-2.518Zm4.489 10.04A5.534 5.534 0 0 0 11.74 10h1.229a6.494 6.494 0 0 1-5.464 3H7.5a6.495 6.495 0 0 1-5.468-3h1.229a5.532 5.532 0 0 0 1.997 1.522A6.79 6.79 0 0 1 4.539 10h1.077c.493 1.242 1.206 2 1.884 2 .678 0 1.391-.758 1.884-2h1.077a6.793 6.793 0 0 1-.719 1.522ZM5 5l-.98 4h-.942L2.5 6.448 1.922 9H.979L0 5h1l.474 2.404L2 5h1l.526 2.404L4 5h1Z" fill="#202124"/><path d="m10 5-.979 4h-.943L7.5 6.448 6.922 9h-.943l-.98-4H6l.474 2.404L7 5h1l.526 2.404L9 5h1Zm0 0 .979 4h.943l.578-2.552L13.078 9h.943L15 5h-1l-.474 2.404L13 5h-1l-.526 2.404L11 5h-1Z" fill="#202124"/></svg>
